apps/www/public/images/pricing/compute-upgrade-green.svg

<svg width="20" height="21" viewBox="0 0 20 21" fill="none" xmlns="http://www.w3.org/2000/svg">
<path d="M9.33957 7.56018H4.37744V12.5602" stroke="#4CC38A" stroke-miterlimit="10" stroke-linejoin="bevel"/>
<path d="M16.25 6.80144V2.56055H3.75V7.56055H10.3031" stroke="#4CC38A" stroke-miterlimit="10" stroke-linejoin="bevel"/>
<path d="M16.25 14.0046V17.5605H3.75V12.5605H10.9114" stroke="#4CC38A" stroke-miterlimit="10" stroke-linejoin="bevel"/>
<path d="M11.318 14.3976L11.318 9.38611L8.53809 9.38611L13.6881 4.16174L18.8381 9.38611L16.2526 9.38611L16.2526 15.0605" stroke="#4CC38A" stroke-miterlimit="10" stroke-linejoin="bevel"/>
<path d="M13.6729 10.0287V15.6481" stroke="#4CC38A" stroke-miterlimit="10" stroke-linejoin="bevel"/>
</svg>

<svg xmlns="http://www.w3.org/2000/svg" width="20" height="21" fill="none" viewBox="0 0 20 21"><path stroke="#4cc38a" stroke-linejoin="bevel" stroke-miterlimit="10" d="M9.34 7.56H4.377v5"/><path stroke="#4cc38a" stroke-linejoin="bevel" stroke-miterlimit="10" d="M16.25 6.801v-4.24H3.75v5h6.553M16.25 14.005v3.556H3.75v-5h7.161"/><path stroke="#4cc38a" stroke-linejoin="bevel" stroke-miterlimit="10" d="M11.318 14.398V9.386h-2.78l5.15-5.224 5.15 5.224h-2.585v5.675M13.673 10.029v5.62"/></svg>
